ix/driver_outline.svg

<svg viewBox="0 0 24 24" fill="none" xmlns="http://www.w3.org/2000/svg" height="1em" width="1em">
  <path d="M19.3198 10.75H4.68977C2.79977 10.75 1.25977 9.21002 1.25977 7.32002V4.69002C1.25977 2.80002 2.79977 1.26001 4.68977 1.26001H19.3198C21.2098 1.26001 22.7498 2.80002 22.7498 4.69002V7.32002C22.7498 9.21002 21.2098 10.75 19.3198 10.75ZM4.67976 2.75002C3.60976 2.75002 2.74977 3.62001 2.74977 4.68001V7.31001C2.74977 8.38001 3.61976 9.24002 4.67976 9.24002H19.3098C20.3798 9.24002 21.2398 8.37001 21.2398 7.31001V4.68001C21.2398 3.61001 20.3698 2.75002 19.3098 2.75002H4.67976Z" fill="#292D32"/>
  <path d="M19.3198 22.75H4.68977C2.79977 22.75 1.25977 21.21 1.25977 19.32V16.69C1.25977 14.8 2.79977 13.26 4.68977 13.26H19.3198C21.2098 13.26 22.7498 14.8 22.7498 16.69V19.32C22.7498 21.21 21.2098 22.75 19.3198 22.75ZM4.67976 14.75C3.60976 14.75 2.74977 15.62 2.74977 16.68V19.31C2.74977 20.38 3.61976 21.24 4.67976 21.24H19.3098C20.3798 21.24 21.2398 20.37 21.2398 19.31V16.68C21.2398 15.61 20.3698 14.75 19.3098 14.75H4.67976Z" fill="#292D32"/>
  <path d="M6 7.75C5.59 7.75 5.25 7.41 5.25 7V5C5.25 4.59 5.59 4.25 6 4.25C6.41 4.25 6.75 4.59 6.75 5V7C6.75 7.41 6.41 7.75 6 7.75Z" fill="#292D32"/>
  <path d="M10 7.75C9.59 7.75 9.25 7.41 9.25 7V5C9.25 4.59 9.59 4.25 10 4.25C10.41 4.25 10.75 4.59 10.75 5V7C10.75 7.41 10.41 7.75 10 7.75Z" fill="#292D32"/>
  <path d="M6 19.75C5.59 19.75 5.25 19.41 5.25 19V17C5.25 16.59 5.59 16.25 6 16.25C6.41 16.25 6.75 16.59 6.75 17V19C6.75 19.41 6.41 19.75 6 19.75Z" fill="#292D32"/>
  <path d="M10 19.75C9.59 19.75 9.25 19.41 9.25 19V17C9.25 16.59 9.59 16.25 10 16.25C10.41 16.25 10.75 16.59 10.75 17V19C10.75 19.41 10.41 19.75 10 19.75Z" fill="#292D32"/>
  <path d="M18 6.75H14C13.59 6.75 13.25 6.41 13.25 6C13.25 5.59 13.59 5.25 14 5.25H18C18.41 5.25 18.75 5.59 18.75 6C18.75 6.41 18.41 6.75 18 6.75Z" fill="#292D32"/>
  <path d="M18 18.75H14C13.59 18.75 13.25 18.41 13.25 18C13.25 17.59 13.59 17.25 14 17.25H18C18.41 17.25 18.75 17.59 18.75 18C18.75 18.41 18.41 18.75 18 18.75Z" fill="#292D32"/>
</svg>

<svg viewBox="0 0 24 24" fill="none" xmlns="http://www.w3.org/2000/svg" height="1em" width="1em">
  <path d="M19.32 10.75H4.69c-1.89 0-3.43-1.54-3.43-3.43V4.69c0-1.89 1.54-3.43 3.43-3.43h14.63c1.89 0 3.43 1.54 3.43 3.43v2.63c0 1.89-1.54 3.43-3.43 3.43Zm-14.64-8c-1.07 0-1.93.87-1.93 1.93v2.63c0 1.07.87 1.93 1.93 1.93h14.63c1.07 0 1.93-.87 1.93-1.93V4.68c0-1.07-.87-1.93-1.93-1.93H4.68Zm14.64 20H4.69c-1.89 0-3.43-1.54-3.43-3.43v-2.63c0-1.89 1.54-3.43 3.43-3.43h14.63c1.89 0 3.43 1.54 3.43 3.43v2.63c0 1.89-1.54 3.43-3.43 3.43Zm-14.64-8c-1.07 0-1.93.87-1.93 1.93v2.63c0 1.07.87 1.93 1.93 1.93h14.63c1.07 0 1.93-.87 1.93-1.93v-2.63c0-1.07-.87-1.93-1.93-1.93H4.68Z" fill="#292D32"/>
  <path d="M6 7.75c-.41 0-.75-.34-.75-.75V5c0-.41.34-.75.75-.75s.75.34.75.75v2c0 .41-.34.75-.75.75Zm4 0c-.41 0-.75-.34-.75-.75V5c0-.41.34-.75.75-.75s.75.34.75.75v2c0 .41-.34.75-.75.75Zm-4 12c-.41 0-.75-.34-.75-.75v-2c0-.41.34-.75.75-.75s.75.34.75.75v2c0 .41-.34.75-.75.75Zm4 0c-.41 0-.75-.34-.75-.75v-2c0-.41.34-.75.75-.75s.75.34.75.75v2c0 .41-.34.75-.75.75Zm8-13h-4c-.41 0-.75-.34-.75-.75s.34-.75.75-.75h4c.41 0 .75.34.75.75s-.34.75-.75.75Zm0 12h-4c-.41 0-.75-.34-.75-.75s.34-.75.75-.75h4c.41 0 .75.34.75.75s-.34.75-.75.75Z" fill="#292D32"/>
</svg>
